X: 16
T:The Meeting of the Waters
% Nottingham Music Database
S:Kevin Briggs, via EF
M:4/4
L:1/4
K:D
[A/2c/2][B/2d/2]|"D"[d2f2] [df][fa]|"D"[A2d2] [df][ce]|"G"[Bd][dg] [Bd][GB]|"D"[A2d2] [df][eg]|"D"[fa][ad'] [Ad][ad']|"G"[gb][fa] [eg][dg]|"A"[f2a2] -"E7"[f2a2]|\
"A"[e2a2] "A7"[Ac][Bd]|
"D"[d2f2] [df][fa]|"D"[A2d2] [df][ce]|"G"[Bd][dg] [Bd][GB]|"D"[A2d2] [df][eg]|"D"[fa][ad'] [gb][fa]|"A7"[ga][Ac] [ce][eg]|"D"[d3/2f3/2][e/2g/2] "A7"[df][ce]|\
"D"[df][eg] "A7"[fa][ga]||
"D"[a3/2d'3/2][g/2b/2] [fa][ad']|"D"[d2f2] [fa][df]|"G"[Bd][dg] [Bd][GB]|"D"[A2d2] [df][eg]|"D"[fa][ad'] [Ad][ad']|"G"[gb][fa] [eg][dg]|"A"[f2a2] -"E7"[f2a2]|\
"A7"[e2g2] [fa][ga]|
"D"[a3/2d'3/2][g/2b/2] [fa][ad']|"D"[d2f2] [fa][df]|"G"[Bd][dg] [Bd][GB]|"D"[A2d2] [df][eg]|"D"[fa][ad'] [gb][fa]|"A7"[ga][Ac] [ce][eg]|"D"[d3/2f3/2][e/2g/2] "A7"[df][ce]|\
"D"[d3f3]||


